X:118
T:Lonesome Moonlight Waltz
C:Bill Monroe
N:Transcribed by Bruce Thomson
R:Waltz
M:3/4
L:1/8
N:Bill Monroe
K:F
|:â€Dmâ€d3f (3dcA|d3f (3dcA|â€Câ€c3d/2c/2(3A-AF|â€Dmâ€D6|d3f (3dcA|d3f (3dcA|
â€œGâ€G3^F G^G|â€Aâ€A6|â€Dmâ€d3f (3dcA|d3f (3dcA|â€Câ€c3d/2c/2(3A-AF|â€Dmâ€D6|
â€œCâ€c3d/2c/2(3A-AG|c3d/2c/2(3AFG|â€Fâ€F6|[1F6:|[2F4FE|]â€Bbâ€D3A, DF|G2F2GF|
â€œFâ€A3F Ad|c4-cA|â€Gâ€G3^F GA|=B2G2Bd|â€Câ€[c6E6]|â€A7â€³[^c6E6]|â€Dmâ€d3f (3dcA|
d3f (3dcA|â€Câ€c3d/2c/2(3A-AF|â€Dmâ€D6|â€Câ€c3d/2c/2(3A-AG|c3d/2c/2(3AFG|â€Fâ€F6|F6|
[f2d2][|â€Dmâ€[a4f4][a2f2]|[a2f2]-[f4d4]|â€Câ€[e3c3]d/2c/2(3A-AF|â€Dmâ€[F4D4][f2d2]|[a4f4][a2f2]|[a2f2]-[f4d4]|â€Gâ€G3^F G^G|â€Aâ€A4[f2d2]|
â€œDmâ€[a4f4][a2f2]|[a2f2]-[f4d4]|â€Câ€[e3c3]d/2c/2(3A-AF|â€Dmâ€[F6D6]|â€Câ€c3d/2c/2(3A-AG|c3d/2c/2(3AFG|â€Fâ€F6|F6|]

